X: 21345
T: Kerr's Fancy
R: hornpipe
M: 4/4
K: Cmajor
G>F|:E2 (3GEG c>GE>G|F2 (3AFA c>AF>A|G2 G>B d>BG>B|
c2 c>e g>ec>G|E2 (3GEG c>GE>G|F2 F>A c>AFA|
G>Bd>B G>fd>B|1 c2c2c2 G>F:|2 c2c2c2 c>B||
A2 (3cAc e>cA>c|B>eB>^G E>E^F^G|A2 (3cAc e>cA>c|
B>eB>^G E2 d>e|f2 f>e d2 d>c|B>GB>d g2 g>f|
(3efe (3ded (3cdc (3BcB|1 A2a2a2 c>B:|2 A2a2a2 G>F||

